X: 7277
T: Clarke's
R: strathspey
M: 4/4
K: Dmajor
(3ABc|dedB AFDF|GABA GABc|dedB AFDF|ECEF D2:|
(3ABc|defg afdf|e^def e=dBA|defg afdf|ed (3efe d2
(3ABc|defg afdf|e^def e=dBA|dedB AFDF|EDEF D2||

